X: 1
T:Marines' Hymn
M: C|
L: 1/4
Q: 1/2=100
K: G
 GB |: d2d2 | d2d2 | d3g | d2Bc | d2d2 | c2A2 |
|1 G4-|G2 G B :|2 G4-|G2 gf |] e2c2 | e2c2 | d3e | d2gf | e2c2 | e2g2 |
 d4-|d2GB | d2d2 | d2d2 | d3g | d2Bc | d2d2 | c2A2 | G4-Gz |]
